src/img/promo-gpon-page/tv.svg

<svg width="36" height="29" viewBox="0 0 36 29" fill="none" xmlns="http://www.w3.org/2000/svg">
    <rect x="2.5" y="2" width="31" height="19.5" rx="0.5" stroke="#FA4907"/>
    <path d="M0.5 1C0.5 0.723858 0.723857 0.5 1 0.5H35C35.2761 0.5 35.5 0.723858 35.5 1V22.6444C35.5 22.9205 35.2761 23.1444 35 23.1444H21.3072H18H14.7938H1C0.723858 23.1444 0.5 22.9205 0.5 22.6444V1Z" stroke="#FA4907"/>
    <path d="M12.0176 28.0001H13.2041M24.0849 28.0001H22.7469M22.7469 28.0001H13.2041M22.7469 28.0001L21.3331 23.6445M13.2041 28.0001L14.8451 23.6445" stroke="#FA4907" stroke-linecap="square" stroke-linejoin="bevel"/>
</svg>

<svg width="36" height="29" fill="none" xmlns="http://www.w3.org/2000/svg"><rect x="2.5" y="2" width="31" height="19.5" rx=".5" stroke="#FA4907"/><path d="M.5 1A.5.5 0 0 1 1 .5h34a.5.5 0 0 1 .5.5v21.644a.5.5 0 0 1-.5.5H1a.5.5 0 0 1-.5-.5V1Z" stroke="#FA4907"/><path d="M12.018 28h1.186m10.88 0h-1.337m0 0h-9.543m9.543 0-1.414-4.355M13.204 28l1.641-4.355" stroke="#FA4907" stroke-linecap="square" stroke-linejoin="bevel"/></svg>
